icons/svg/skimap/piste_hike.svg

<?xml version="1.0" encoding="UTF-8" standalone="no"?>
<svg
   xmlns:dc="http://purl.org/dc/elements/1.1/"
   xmlns:cc="http://creativecommons.org/ns#"
   xmlns:rdf="http://www.w3.org/1999/02/22-rdf-syntax-ns#"
   xmlns:svg="http://www.w3.org/2000/svg"
   xmlns="http://www.w3.org/2000/svg"
   xmlns:sodipodi="http://sodipodi.sourceforge.net/DTD/sodipodi-0.dtd"
   xmlns:inkscape="http://www.inkscape.org/namespaces/inkscape"
   width="32"
   height="32"
   id="svg2"
   version="1.1"
   inkscape:version="0.91 r"
   sodipodi:docname="piste_hike.svg">
  <defs
     id="defs13">
    <inkscape:path-effect
       effect="gears"
       id="path-effect3774"
       is_visible="true"
       teeth="6"
       phi="-1.2" />
    <inkscape:path-effect
       effect="bend_path"
       id="path-effect3772"
       is_visible="false"
       bendpath="m 95.790098,316.51174 c 144.429032,-206.42506 223.313032,-11.7428 339.548092,0"
       prop_scale="1.19"
       scale_y_rel="false"
       vertical="false"
       bendpath-nodetypes="cc" />
  </defs>
  <sodipodi:namedview
     pagecolor="#ffffff"
     bordercolor="#666666"
     borderopacity="1"
     objecttolerance="10"
     gridtolerance="10"
     guidetolerance="10"
     inkscape:pageopacity="0"
     inkscape:pageshadow="2"
     inkscape:window-width="1920"
     inkscape:window-height="1004"
     id="namedview11"
     showgrid="false"
     inkscape:zoom="3.2551723"
     inkscape:cx="47.324822"
     inkscape:cy="40.009088"
     inkscape:window-x="1680"
     inkscape:window-y="0"
     inkscape:window-maximized="1"
     inkscape:current-layer="svg2"
     inkscape:snap-object-midpoints="true"
     inkscape:snap-page="true" />
  <metadata
     id="metadata2975">image/svg+xmlen<rdf:RDF>
  <cc:Work
     rdf:about="">
    <dc:format>image/svg+xml</dc:format>
    <dc:type
       rdf:resource="http://purl.org/dc/dcmitype/StillImage" />
    <dc:title />
  </cc:Work>
</rdf:RDF>
</metadata>
  <g
     transform="matrix(0.0551864,0,0,0.0551864,0,-0.0555723)"
     id="g1327">
    <path
       inkscape:connector-curvature="0"
       d="M 66.275,1.768 C 24.94,1.768 1.704,23.139 1.704,66.804 l 0,450.123 c 0,40.844 20.895,62.229 62.192,62.229 l 452.024,0 c 41.307,0 62.229,-20.315 62.229,-62.229 l 0,-450.123 c 0,-42.601 -20.922,-65.036 -63.521,-65.036 -0.004,0 -448.495,-0.143 -448.353,0 z"
       style="fill:#111111;stroke:#eeeeee;stroke-width:3.40799999"
       id="path1329" />
  </g>
  <path
     d="m 16.653715,6.708341 c -0.828756,0 -1.509671,0.7007545 -1.509671,1.5398648 0,0.8391104 0.680915,1.5096709 1.509671,1.5096709 0.828756,0 1.479478,-0.6705605 1.479478,-1.5096709 0,-0.8391103 -0.650722,-1.5398648 -1.479478,-1.5398648 z m -2.02296,3.472244 -1.388897,4.861142 c -0.141036,0.856787 -0.151766,1.490131 0.694449,2.20412 l 0.603868,0.513289 1.449285,1.479478 0,3.864758 c 0.08477,0.961258 2.092729,0.754484 1.962572,0 l 0,-4.287466 c -0.0036,-0.263332 -0.112554,-0.51392 -0.301934,-0.694449 l -1.509671,-1.539865 -0.422708,-0.543482 0.694449,-2.898569 1.298317,1.358705 c 0.281752,0.296037 0.716947,0.380658 1.086963,0.211354 l 1.570059,-0.815223 0,9.933638 0.966189,0 0,-10.416733 0.301935,-0.150967 c 1.068454,-0.32939 0.81465,-1.928349 -0.301935,-1.902186 l 0,-0.392514 -0.966189,0 0,0.785029 -1.781413,0.905802 -1.630445,-1.721025 c -0.139395,-0.141911 -0.318647,-0.236809 -0.513288,-0.271741 -0.02903,-0.01885 -0.06414,-0.05146 -0.09058,-0.06039 z m -1.298317,0.06039 c -0.565245,0.01339 -1.237332,0.128764 -1.871993,0.664256 -0.846215,0.713989 -1.398829,1.909997 -1.5398644,2.838182 -0.1410357,0.856787 0.5025574,1.144508 1.2077374,1.358704 0.705178,0.214197 1.338441,-0.07388 1.479478,-0.573675 0.211553,-0.642591 1.268124,-4.287467 1.268124,-4.287467 -0.158665,0 -0.355067,-0.0044 -0.543482,0 z m -0.362321,6.763328 -0.301934,1.932379 0,0.03019 c -0.01076,0.01977 -0.02083,0.03991 -0.03019,0.06039 -0.03472,0.04746 -0.06504,0.09799 -0.09058,0.150967 l -1.419091,3.562824 c -0.49813,1.109805 1.213547,1.125672 1.811605,0.724643 l 1.419092,-3.562825 c 0.06173,-0.132254 0.0927,-0.276773 0.09058,-0.422708 6.29e-4,-0.02013 6.29e-4,-0.04027 0,-0.06039 l 0.18116,-0.543481 c -0.916732,-0.785389 -1.660638,-1.3722 -1.660642,-1.871989 z"
     id="circle3"
     style="color:#000000;display:inline;overflow:visible;visibility:visible;fill:#ffffff;fill-opacity:1;fill-rule:nonzero;stroke:none;marker:none;enable-background:accumulate"
     inkscape:connector-curvature="0"
     sodipodi:nodetypes="ssssscccccccccccccccccccccccccccccscsccccccccccccccc" />
  <path
     style="font-style:normal;font-variant:normal;font-weight:normal;font-stretch:normal;font-size:40px;line-height:125%;font-family:NPSPICT3;-inkscape-font-specification:NPSPICT3;text-align:start;writing-mode:lr-tb;text-anchor:start;fill:#ffffff;fill-opacity:1;stroke:none"
     d="m 22.73774,23.761517 c -9.97e-4,0.276358 -0.115122,0.567911 -0.339519,0.707333 -0.107154,0.06657 -0.235512,0.113471 -0.367813,0.113174 l -13.9485877,0.02829 0,1.04685 13.8919997,-0.05658 c 0.427899,-0.01025 0.50392,-0.09368 0.877092,-0.311226 0.380356,-0.236321 0.759996,-0.957204 0.76392,-1.414666 z"
     id="flowRoot3192"
     inkscape:connector-curvature="0"
     sodipodi:nodetypes="ccccccccc" />
</svg>

<svg width="32" height="32" viewBox="0 0 32 32" fill="none" xmlns="http://www.w3.org/2000/svg">
<g clip-path="url(#clip0)">
<path d="M3.65747 0.0419596C1.37634 0.0419596 0.0940247 1.22135 0.0940247 3.63106V28.4717C0.0940247 30.7258 1.24714 31.9059 3.52618 31.9059H28.4718C30.7513 31.9059 31.9059 30.7848 31.9059 28.4717V3.63106C31.9059 1.28007 30.7513 0.0419596 28.4005 0.0419596C28.4002 0.0419596 3.64963 0.0340679 3.65747 0.0419596V0.0419596Z" fill="#111111" stroke="#EEEEEE" stroke-width="0.188075"/>
<path d="M16.6537 6.70837C15.825 6.70837 15.144 7.40913 15.144 8.24824C15.144 9.08735 15.825 9.75791 16.6537 9.75791C17.4825 9.75791 18.1332 9.08735 18.1332 8.24824C18.1332 7.40913 17.4825 6.70837 16.6537 6.70837V6.70837ZM14.6307 10.1806L13.2419 15.0418C13.1008 15.8985 13.0901 16.5319 13.9363 17.2459L14.5402 17.7592L15.9895 19.2386V23.1034C16.0742 24.0647 18.0822 23.8579 17.952 23.1034V18.8159C17.9484 18.5526 17.8395 18.302 17.6501 18.1215L16.1404 16.5816L15.7177 16.0381L16.4122 13.1396L17.7105 14.4983C17.9922 14.7943 18.4274 14.8789 18.7974 14.7096L20.3675 13.8944V23.828H21.3337V13.4113L21.6356 13.2603C22.7041 12.931 22.4503 11.332 21.3337 11.3582V10.9656H20.3675V11.7507L18.5861 12.6565L16.9556 10.9355C16.8162 10.7935 16.637 10.6986 16.4424 10.6637C16.4133 10.6449 16.3782 10.6123 16.3518 10.6033L14.6307 10.1806ZM13.3324 10.241C12.7672 10.2544 12.0951 10.3698 11.4604 10.9053C10.6142 11.6193 10.0616 12.8153 9.92057 13.7434C9.77954 14.6002 10.4231 14.888 11.1283 15.1021C11.8335 15.3163 12.4668 15.0283 12.6078 14.5285C12.8193 13.8859 13.8759 10.241 13.8759 10.241C13.7172 10.241 13.5208 10.2366 13.3324 10.241V10.241ZM12.9701 17.0043L12.6682 18.9367V18.9669C12.6574 18.9867 12.6473 19.0068 12.638 19.0273C12.6033 19.0748 12.5729 19.1253 12.5474 19.1783L11.1283 22.7411C10.6302 23.8509 12.3419 23.8668 12.9399 23.4657L14.359 19.9029C14.4207 19.7706 14.4517 19.6261 14.4496 19.4802C14.4502 19.4601 14.4502 19.4399 14.4496 19.4198L14.6308 18.8763C13.714 18.0909 12.9701 17.5041 12.9701 17.0043V17.0043Z" fill="white"/>
<path d="M22.7377 23.7615C22.7367 24.0378 22.6226 24.3294 22.3982 24.4688C22.2911 24.5354 22.1627 24.5823 22.0304 24.582L8.08182 24.6103V25.6571L21.9738 25.6005C22.4017 25.5903 22.4777 25.5069 22.8509 25.2893C23.2313 25.053 23.6109 24.3321 23.6148 23.8747L22.7377 23.7615Z" fill="white"/>
</g>
<defs>
<clipPath id="clip0">
<path d="M0 0H32V32H0V0Z" fill="white"/>
</clipPath>
</defs>
</svg>
